icons/ai-defult.svg

<?xml version="1.0" encoding="UTF-8" standalone="no"?>
<svg
   viewBox="0 0 32 32"
   version="1.1"
   id="svg5"
   sodipodi:docname="ai-defult.svg"
   inkscape:version="1.2.2 (b0a8486541, 2022-12-01)"
   xmlns:inkscape="http://www.inkscape.org/namespaces/inkscape"
   xmlns:sodipodi="http://sodipodi.sourceforge.net/DTD/sodipodi-0.dtd"
   xmlns="http://www.w3.org/2000/svg"
   xmlns:svg="http://www.w3.org/2000/svg">
  <sodipodi:namedview
     id="namedview7"
     pagecolor="#ffffff"
     bordercolor="#000000"
     borderopacity="0.25"
     inkscape:showpageshadow="2"
     inkscape:pageopacity="0.0"
     inkscape:pagecheckerboard="0"
     inkscape:deskcolor="#d1d1d1"
     showgrid="false"
     inkscape:zoom="19.423339"
     inkscape:cx="13.566153"
     inkscape:cy="17.787878"
     inkscape:window-width="1920"
     inkscape:window-height="1008"
     inkscape:window-x="0"
     inkscape:window-y="0"
     inkscape:window-maximized="1"
     inkscape:current-layer="svg5" />
  <defs
     id="defs3051">
    <style
       type="text/css"
       id="current-color-scheme">
      .ColorScheme-Text {
        color:#eff0f1;
      }
      </style>
  </defs>
  <path
     style="fill:#808080;fill-opacity:1;stroke:none;stroke-width:1.03678"
     d="M 3,2.3454052 V 17.394271 h 8 v 6.449513 l 6.690034,5.501621 0.07931,-5.501621 H 29 V 8.794919 H 21 V 2.3454052 Z m 1,1.074919 H 20 V 16.319352 H 4 Z m 17,6.449514 h 7 V 22.768865 H 12 v -5.374594 h 2.383783 l 0.09608,6.661896 L 21,17.394271 Z"
     id="path88"
     class="ColorScheme-Text"
     sodipodi:nodetypes="ccccccccccccccccccccccccc" />
</svg>

<?xml version="1.0" encoding="UTF-8"?>
<svg id="svg5" version="1.1" viewBox="0 0 32 32" xmlns="http://www.w3.org/2000/svg">
 <defs id="defs3051">
  <style id="current-color-scheme" type="text/css">.ColorScheme-Text {
        color:#eff0f1;
      }</style>
 </defs>
 <path id="path88" class="ColorScheme-Text" d="m3 2.3454v15.049h8v6.4495l6.69 5.5016 0.07931-5.5016h11.231v-15.049h-8v-6.4495zm1 1.0749h16v12.899h-16zm17 6.4495h7v12.899h-16v-5.3746h2.3838l0.09608 6.6619 6.5201-6.6619z" fill="#808080"/>
</svg>
